client_oktawian/projekt/src/img/increase_icon_1.svg

<?xml version="1.0" encoding="UTF-8"?>
<svg width="60px" height="60px" viewBox="0 0 60 60" version="1.1" xmlns="http://www.w3.org/2000/svg" xmlns:xlink="http://www.w3.org/1999/xlink">
    <!-- Generator: Sketch 51.1 (57501) - http://www.bohemiancoding.com/sketch -->
    <title>noun_funding_1018323</title>
    <desc>Created with Sketch.</desc>
    <defs>
        <linearGradient x1="100%" y1="0%" x2="0%" y2="100%" id="linearGradient-1">
            <stop stop-color="#7065D8" offset="0%"></stop>
            <stop stop-color="#275DDF" offset="100%"></stop>
        </linearGradient>
    </defs>
    <g id="Registration-&amp;-Login" stroke="none" stroke-width="1" fill="none" fill-rule="evenodd">
        <g id="1.Home" transform="translate(-250.000000, -277.000000)" fill="url(#linearGradient-1)" fill-rule="nonzero">
            <g id="noun_funding_1018323" transform="translate(250.000000, 277.000000)">
                <path d="M7,44 C5.346,44 4,45.346 4,47 C4,48.654 5.346,50 7,50 C8.654,50 10,48.654 10,47 C10,45.346 8.654,44 7,44 Z M7,48 C6.449,48 6,47.552 6,47 C6,46.448 6.449,46 7,46 C7.551,46 8,46.448 8,47 C8,47.552 7.551,48 7,48 Z" id="Shape"></path>
                <path d="M39,13 C36.243,13 34,15.243 34,18 C34,20.757 36.243,23 39,23 C41.757,23 44,20.757 44,18 C44,15.243 41.757,13 39,13 Z M39,21 C37.346,21 36,19.654 36,18 C36,16.346 37.346,15 39,15 C40.654,15 42,16.346 42,18 C42,19.654 40.654,21 39,21 Z" id="Shape"></path>
                <path d="M59,0 L19,0 C18.448,0 18,0.447 18,1 L18,10.979 C17.247,10.084 16.299,9.344 15.204,8.783 C15.269,8.583 15.338,8.383 15.368,8.175 L15.989,3.979 C15.997,3.93 16,3.881 16,3.832 C16,2.695 15.348,1.72 14.298,1.285 C13.634,1.009 12.929,1 12.298,1.233 L12.294,1.227 C11.782,0.459 10.924,0 10,0 C9.076,0 8.218,0.459 7.706,1.228 L7.702,1.233 C7.071,0.998 6.367,1.008 5.702,1.285 C4.652,1.72 4,2.695 4,3.832 C4,3.881 4.003,3.93 4.011,3.979 L4.632,8.174 C4.663,8.383 4.732,8.583 4.797,8.783 C2.123,10.153 0.343,12.611 0.054,15.678 C0.019,15.779 0,15.888 0,16 L0,27 C0,27.012 0.006,27.021 0.007,27.033 C0.011,27.15 0.032,27.265 0.076,27.374 C0.085,27.396 0.099,27.413 0.109,27.434 C0.136,27.491 0.162,27.548 0.2,27.6 L3.2,31.6 C3.389,31.852 3.685,32 4,32 L19.556,32 C19.212,32.591 19,33.268 19,34 L19,39.54 L14,43.826 L14,41 C14,40.447 13.552,40 13,40 L1,40 C0.448,40 0,40.447 0,41 L0,59 C0,59.553 0.448,60 1,60 L13,60 C13.527,60 13.946,59.589 13.985,59.073 L26.928,59.997 C26.953,59.999 26.976,60 27,60 C27.123,60 27.244,59.978 27.359,59.934 L40.359,54.934 C40.498,54.88 40.623,54.797 40.725,54.689 L59.725,34.689 C59.901,34.503 60,34.256 60,34 C60,32.253 59.136,30.933 57.742,30.343 L59.8,27.6 C59.839,27.549 59.864,27.491 59.891,27.434 C59.901,27.413 59.915,27.396 59.924,27.374 C59.968,27.265 59.989,27.15 59.993,27.033 C59.994,27.021 60,27.012 60,27 L60,1 C60,0.447 59.552,0 59,0 Z M25.899,26 C25.434,23.721 23.415,22 21,22 L20,22 L20,14 L21,14 C23.414,14 25.434,12.279 25.899,10 L52.101,10 C52.566,12.279 54.585,14 57,14 L58,14 L58,22 L57,22 C54.586,22 52.566,23.721 52.101,26 L25.899,26 Z M20,24 L21,24 C22.304,24 23.416,24.836 23.829,26 L20,26 L20,24 Z M58,8 L20,8 L20,6 L58,6 L58,8 Z M58,12 L57,12 C55.696,12 54.584,11.164 54.171,10 L58,10 L58,12 Z M20,10 L23.829,10 C23.416,11.164 22.304,12 21,12 L20,12 L20,10 Z M57,24 L58,24 L58,26 L54.171,26 C54.584,24.836 55.696,24 57,24 Z M20,2 L58,2 L58,4 L20,4 L20,2 Z M6.645,8.056 C6.63,7.998 6.619,7.94 6.61,7.882 L6.002,3.772 C6.031,3.346 6.363,3.175 6.468,3.132 C6.578,3.086 6.961,2.964 7.293,3.295 C7.505,3.507 7.803,3.609 8.099,3.583 C8.397,3.554 8.666,3.392 8.832,3.143 L9.37,2.336 C9.572,2.033 9.878,2 10,2 C10.122,2 10.428,2.033 10.63,2.337 L11.168,3.144 C11.334,3.393 11.603,3.555 11.901,3.584 C12.201,3.611 12.495,3.508 12.707,3.296 C13.039,2.965 13.423,3.087 13.532,3.133 C13.637,3.176 13.969,3.347 13.998,3.773 L13.39,7.883 C13.381,7.941 13.37,7.998 13.356,8.056 C13.345,8.053 13.334,8.051 13.324,8.048 C13.09,7.981 12.853,7.921 12.61,7.868 C12.543,7.853 12.474,7.841 12.407,7.827 C12.205,7.787 12.002,7.749 11.795,7.719 C11.657,7.699 11.517,7.686 11.378,7.67 C11.228,7.654 11.079,7.634 10.926,7.623 C10.62,7.602 10.312,7.589 10,7.589 C9.688,7.589 9.38,7.602 9.075,7.624 C8.922,7.635 8.773,7.655 8.622,7.671 C8.483,7.686 8.344,7.7 8.207,7.72 C7.999,7.75 7.795,7.788 7.592,7.828 C7.525,7.841 7.458,7.854 7.391,7.868 C7.148,7.92 6.91,7.981 6.676,8.048 C6.666,8.051 6.655,8.053 6.645,8.056 Z M2,16.245 C2.015,16.187 2.024,16.128 2.028,16.066 C2.211,13.324 3.874,11.224 6.427,10.228 C6.446,10.222 6.466,10.224 6.484,10.216 C8.664,9.382 11.337,9.382 13.516,10.216 C13.533,10.223 13.552,10.22 13.569,10.226 C16.124,11.222 17.789,13.322 17.972,16.066 C17.976,16.126 17.985,16.184 18,16.24 L18,23 L18,26 L2,26 L2,16.245 Z M3,28 L57,28 L55.5,30 L4.5,30 L3,28 Z M27,49.059 L27,48.414 L39.638,35.775 C40.15,35.453 40.939,35.354 41.292,35.707 C41.685,36.1 41.685,36.9 41.292,37.293 L35.592,42.993 C32.583,45.096 29.619,47.193 27,49.059 Z M42.707,34.293 C41.516,33.103 39.612,33.347 38.424,34.183 C38.377,34.215 38.333,34.252 38.293,34.293 L27,45.586 L27,34 C27,33.268 26.788,32.591 26.444,32 L52.01,32 C49.732,33.382 46.705,35.372 43.387,37.621 C43.794,36.502 43.571,35.158 42.707,34.293 Z M2,58 L2,42 L12,42 L12,46 L12,58 L2,58 Z M39.431,53.147 L26.849,57.986 L14,57.069 L14,46.46 L20.651,40.759 C20.873,40.569 21,40.292 21,40 L21,34 C21,32.897 21.897,32 23,32 C24.103,32 25,32.897 25,34 L25,48 L25,51 C25,51.375 25.209,51.718 25.542,51.89 C25.619,51.93 25.701,51.957 25.784,51.975 C25.816,51.982 25.847,51.982 25.879,51.986 C25.92,51.991 25.96,52 26,52 C26.01,52 26.02,51.996 26.03,51.995 C26.098,51.993 26.165,51.98 26.232,51.964 C26.26,51.957 26.289,51.955 26.317,51.946 C26.41,51.915 26.499,51.872 26.582,51.813 C26.628,51.781 31.223,48.5 36.742,44.651 C36.749,44.646 36.755,44.639 36.763,44.634 C45.566,38.5 54.582,32.417 56.067,32.001 C57.505,32.028 57.887,32.966 57.977,33.627 L39.431,53.147 Z" id="Shape"></path>
                <path d="M10,15 C10.551,15 11,15.448 11,16 L13,16 C13,14.698 12.161,13.598 11,13.184 L11,12 L9,12 L9,13.184 C7.839,13.598 7,14.698 7,16 C7,17.654 8.346,19 10,19 C10.551,19 11,19.448 11,20 C11,20.552 10.551,21 10,21 C9.449,21 9,20.552 9,20 L7,20 C7,21.302 7.839,22.402 9,22.816 L9,24 L11,24 L11,22.816 C12.161,22.402 13,21.302 13,20 C13,18.346 11.654,17 10,17 C9.449,17 9,16.552 9,16 C9,15.448 9.449,15 10,15 Z" id="Shape"></path>
            </g>
        </g>
    </g>
</svg>

<?xml version="1.0" encoding="utf-8"?>
<!-- Generator: Adobe Illustrator 22.1.0, SVG Export Plug-In . SVG Version: 6.00 Build 0)  -->
<svg version="1.1" id="Layer_1" xmlns="http://www.w3.org/2000/svg" xmlns:xlink="http://www.w3.org/1999/xlink" x="0px" y="0px"
	 viewBox="0 0 60 60" style="enable-background:new 0 0 60 60;" xml:space="preserve">
<style type="text/css">
	.st0{fill:url(#Shape_4_);}
	.st1{fill:url(#Shape_5_);}
	.st2{fill:url(#Shape_6_);}
	.st3{fill:url(#Shape_7_);}
</style>
<title>noun_funding_1018323</title>
<desc>Created with Sketch.</desc>
<g id="Registration-_x26_-Login">
	<g id="_x31_.Home" transform="translate(-250.000000, -277.000000)">
		<g id="noun_funding_1018323" transform="translate(250.000000, 277.000000)">
			
				<linearGradient id="Shape_4_" gradientUnits="userSpaceOnUse" x1="-773.1667" y1="486.1667" x2="-774.1667" y2="485.1667" gradientTransform="matrix(6 0 0 -6 4649 2961)">
				<stop  offset="0" style="stop-color:#FABD61"/>
				<stop  offset="1" style="stop-color:#F76B1C"/>
			</linearGradient>
			<path id="Shape" class="st0" d="M7,44c-1.7,0-3,1.3-3,3s1.3,3,3,3s3-1.3,3-3S8.7,44,7,44z M7,48c-0.6,0-1-0.4-1-1s0.4-1,1-1
				s1,0.4,1,1S7.6,48,7,48z"/>
			
				<linearGradient id="Shape_5_" gradientUnits="userSpaceOnUse" x1="-835.1" y1="520.1" x2="-836.1" y2="519.1" gradientTransform="matrix(10 0 0 -10 8395 5214)">
				<stop  offset="0" style="stop-color:#FABD61"/>
				<stop  offset="1" style="stop-color:#F76B1C"/>
			</linearGradient>
			<path id="Shape_1_" class="st1" d="M39,13c-2.8,0-5,2.2-5,5s2.2,5,5,5s5-2.2,5-5S41.8,13,39,13z M39,21c-1.7,0-3-1.3-3-3
				s1.3-3,3-3s3,1.3,3,3S40.7,21,39,21z"/>
			
				<linearGradient id="Shape_6_" gradientUnits="userSpaceOnUse" x1="-912.5912" y1="562.5912" x2="-913.5912" y2="561.5912" gradientTransform="matrix(60 0 0 -60 54811 33751)">
				<stop  offset="0" style="stop-color:#FABD61"/>
				<stop  offset="1" style="stop-color:#F76B1C"/>
			</linearGradient>
			<path id="Shape_2_" class="st2" d="M59,0H19c-0.6,0-1,0.4-1,1v10c-0.8-0.9-1.7-1.6-2.8-2.2c0.1-0.2,0.1-0.4,0.2-0.6L16,4
				c0,0,0-0.1,0-0.1c0-1.1-0.7-2.1-1.7-2.5c-0.7-0.3-1.4-0.3-2-0.1l0,0C11.8,0.5,10.9,0,10,0S8.2,0.5,7.7,1.2l0,0
				C7.1,1,6.4,1,5.7,1.3C4.7,1.7,4,2.7,4,3.8c0,0,0,0.1,0,0.1l0.6,4.2c0,0.2,0.1,0.4,0.2,0.6c-2.7,1.4-4.5,3.8-4.7,6.9
				C0,15.8,0,15.9,0,16v11c0,0,0,0,0,0c0,0.1,0,0.2,0.1,0.3c0,0,0,0,0,0.1c0,0.1,0.1,0.1,0.1,0.2l3,4C3.4,31.9,3.7,32,4,32h15.6
				c-0.3,0.6-0.6,1.3-0.6,2v5.5l-5,4.3V41c0-0.6-0.4-1-1-1H1c-0.6,0-1,0.4-1,1v18c0,0.6,0.4,1,1,1h12c0.5,0,0.9-0.4,1-0.9L26.9,60
				c0,0,0,0,0.1,0c0.1,0,0.2,0,0.4-0.1l13-5c0.1-0.1,0.3-0.1,0.4-0.2l19-20c0.2-0.2,0.3-0.4,0.3-0.7c0-1.7-0.9-3.1-2.3-3.7l2.1-2.7
				c0-0.1,0.1-0.1,0.1-0.2c0,0,0,0,0-0.1c0-0.1,0.1-0.2,0.1-0.3c0,0,0,0,0,0V1C60,0.4,59.6,0,59,0z M25.9,26c-0.5-2.3-2.5-4-4.9-4
				h-1v-8h1c2.4,0,4.4-1.7,4.9-4h26.2c0.5,2.3,2.5,4,4.9,4h1v8h-1c-2.4,0-4.4,1.7-4.9,4H25.9z M20,24h1c1.3,0,2.4,0.8,2.8,2H20V24z
				 M58,8H20V6h38V8z M58,12h-1c-1.3,0-2.4-0.8-2.8-2H58V12z M20,10h3.8c-0.4,1.2-1.5,2-2.8,2h-1V10z M57,24h1v2h-3.8
				C54.6,24.8,55.7,24,57,24z M20,2h38v2H20V2z M6.6,8.1c0-0.1,0-0.1,0-0.2L6,3.8c0-0.4,0.4-0.6,0.5-0.6C6.6,3.1,7,3,7.3,3.3
				c0.2,0.2,0.5,0.3,0.8,0.3c0.3,0,0.6-0.2,0.7-0.4l0.5-0.8C9.6,2,9.9,2,10,2s0.4,0,0.6,0.3l0.5,0.8c0.2,0.2,0.4,0.4,0.7,0.4
				c0.3,0,0.6-0.1,0.8-0.3C13,3,13.4,3.1,13.5,3.1c0.1,0,0.4,0.2,0.5,0.6l-0.6,4.1c0,0.1,0,0.1,0,0.2c0,0,0,0,0,0
				c-0.2-0.1-0.5-0.1-0.7-0.2c-0.1,0-0.1,0-0.2,0c-0.2,0-0.4-0.1-0.6-0.1c-0.1,0-0.3,0-0.4,0c-0.2,0-0.3,0-0.5,0c-0.3,0-0.6,0-0.9,0
				s-0.6,0-0.9,0c-0.2,0-0.3,0-0.5,0c-0.1,0-0.3,0-0.4,0C8,7.8,7.8,7.8,7.6,7.8c-0.1,0-0.1,0-0.2,0C7.1,7.9,6.9,8,6.6,8.1
				C6.7,8.1,6.7,8.1,6.6,8.1z M2,16.2c0-0.1,0-0.1,0-0.2c0.2-2.7,1.8-4.8,4.4-5.8c0,0,0,0,0.1,0c2.2-0.8,4.9-0.8,7,0c0,0,0,0,0.1,0
				c2.6,1,4.2,3.1,4.4,5.8c0,0.1,0,0.1,0,0.2V23v3H2V16.2z M3,28h54l-1.5,2h-51L3,28z M27,49.1v-0.6l12.6-12.6
				c0.5-0.3,1.3-0.4,1.7-0.1c0.4,0.4,0.4,1.2,0,1.6L35.6,43C32.6,45.1,29.6,47.2,27,49.1z M42.7,34.3c-1.2-1.2-3.1-0.9-4.3-0.1
				c0,0-0.1,0.1-0.1,0.1L27,45.6V34c0-0.7-0.2-1.4-0.6-2H52c-2.3,1.4-5.3,3.4-8.6,5.6C43.8,36.5,43.6,35.2,42.7,34.3z M2,58V42h10v4
				v12H2z M39.4,53.1L26.8,58L14,57.1V46.5l6.7-5.7c0.2-0.2,0.3-0.5,0.3-0.8v-6c0-1.1,0.9-2,2-2s2,0.9,2,2v14v3
				c0,0.4,0.2,0.7,0.5,0.9c0.1,0,0.2,0.1,0.2,0.1c0,0,0.1,0,0.1,0c0,0,0.1,0,0.1,0c0,0,0,0,0,0c0.1,0,0.1,0,0.2,0c0,0,0.1,0,0.1,0
				c0.1,0,0.2-0.1,0.3-0.1c0,0,4.6-3.3,10.2-7.2c0,0,0,0,0,0c8.8-6.1,17.8-12.2,19.3-12.6c1.4,0,1.8,1,1.9,1.6L39.4,53.1z"/>
			
				<linearGradient id="Shape_7_" gradientUnits="userSpaceOnUse" x1="-773.1667" y1="528.5833" x2="-774.1667" y2="527.5833" gradientTransform="matrix(6 0 0 -12 4652 6355)">
				<stop  offset="0" style="stop-color:#FABD61"/>
				<stop  offset="1" style="stop-color:#F76B1C"/>
			</linearGradient>
			<path id="Shape_3_" class="st3" d="M10,15c0.6,0,1,0.4,1,1h2c0-1.3-0.8-2.4-2-2.8V12H9v1.2c-1.2,0.4-2,1.5-2,2.8c0,1.7,1.3,3,3,3
				c0.6,0,1,0.4,1,1s-0.4,1-1,1s-1-0.4-1-1H7c0,1.3,0.8,2.4,2,2.8V24h2v-1.2c1.2-0.4,2-1.5,2-2.8c0-1.7-1.3-3-3-3c-0.6,0-1-0.4-1-1
				S9.4,15,10,15z"/>
		</g>
	</g>
</g>
</svg>
